assets/Metro/Flat/metro_flat.svg

<svg width="32" height="32" viewBox="0 0 32 32" fill="none" xmlns="http://www.w3.org/2000/svg">
<path d="M30 16C30 19.79 28.49 23.23 26.03 25.76C25.64 26.16 25.23 26.54 24.79 26.89C22.38 28.84 19.32 30 16 30C12.68 30 9.62 28.84 7.21 26.89C6.77 26.54 6.36 26.16 5.97 25.76C3.51 23.23 2 19.79 2 16C2 8.27 8.27 2 16 2C23.73 2 30 8.27 30 16Z" fill="#321B41"/>
<path d="M24 16V6.78998C24 5.79998 23.19 5 22.19 5H9.82001C8.82001 5 8.01001 5.79998 8.01001 6.78998V16H24Z" fill="white"/>
<path d="M9.87478 22.3727C9.23923 23.3485 7.93154 25.3636 7.78517 25.6178C7.76373 25.655 7.7403 25.6936 7.7161 25.7335C7.5338 26.0336 7.30753 26.4061 7.55406 26.8312C7.82035 27.2903 8.40186 27.2853 8.57218 27.2839C8.58047 27.2838 8.58779 27.2837 8.59405 27.2837H23.4043C23.7221 27.2837 24.1072 27.2645 24.3576 26.9371C24.608 26.6097 24.6272 26.2149 24.2902 25.6756C24.0206 25.2442 22.7398 23.2939 22.1332 22.3727H9.87478ZM10.8026 24.0072C10.8636 23.9045 11.0457 23.601 11.1074 23.5009C11.1844 23.3757 11.5399 23.0004 11.9924 23.0004H20.0088C20.4036 23.0004 20.6984 23.2313 20.8813 23.5009C20.9824 23.6498 21.0654 23.8083 21.1188 23.9102L21.1188 23.9102L21.1188 23.9102C21.1428 23.956 21.1608 23.9903 21.1717 24.0072H10.8026ZM9.50016 25.9979C9.55794 25.9209 9.69468 25.7322 9.77942 25.5935C9.88535 25.4202 10.3969 24.9973 10.8495 24.9973H21.3983C21.6101 24.9973 21.923 25.1152 22.0627 25.3248C22.1397 25.4403 22.4368 25.8888 22.5075 25.9979H9.50016Z" fill="#D3D3D3"/>
<path d="M8 16V19.24C8 21.32 9.71 23 11.81 23H20.18C22.29 23 23.99 21.32 23.99 19.24V16H8Z" fill="#F92F60"/>
<path d="M11 20H13C13.56 20 14 19.56 14 19C14 18.45 13.55 18 13 18H11C10.45 18 10 18.45 10 19C10 19.55 10.45 20 11 20ZM19 20H21C21.56 20 22 19.56 22 19C22 18.45 21.55 18 21 18H19C18.45 18 18 18.45 18 19C18 19.55 18.45 20 19 20Z" fill="#FCD53F"/>
<path d="M12.5 7H19.5C19.78 7 20 6.78 20 6.5C20 6.22 19.78 6 19.5 6H12.5C12.22 6 12 6.22 12 6.5C12 6.78 12.22 7 12.5 7ZM11.96 17H20.05C21.13 17 22 16.13 22.01 15.04V9.94998C22.01 8.86998 21.13 7.98999 20.05 7.98999H11.96C10.88 7.98999 10 8.86998 10 9.94998V15.04C10 16.12 10.88 17 11.96 17Z" fill="#636363"/>
<path d="M19.54 16H12.47C11.66 16 11 15.34 11 14.53V10.46C11 9.64999 11.66 8.98999 12.47 8.98999H19.54C20.35 8.98999 21.01 9.64999 21.01 10.46V14.53C21 15.35 20.35 16 19.54 16Z" fill="#00D1ED"/>
</svg>

<svg xmlns="http://www.w3.org/2000/svg" width="32" height="32" fill="none"><path fill="#321B41" d="M30 16c0 3.79-1.51 7.23-3.97 9.76-.39.4-.8.78-1.24 1.13A13.928 13.928 0 0 1 16 30c-3.32 0-6.38-1.16-8.79-3.11-.44-.35-.85-.73-1.24-1.13A13.953 13.953 0 0 1 2 16C2 8.27 8.27 2 16 2s14 6.27 14 14Z"/><path fill="#fff" d="M24 16V6.79C24 5.8 23.19 5 22.19 5H9.82c-1 0-1.81.8-1.81 1.79V16H24Z"/><path fill="#D3D3D3" d="M9.875 22.373c-.636.976-1.943 2.99-2.09 3.245l-.069.116c-.182.3-.408.672-.162 1.097.266.46.848.454 1.018.453h14.832c.318 0 .703-.02.954-.347.25-.327.27-.722-.068-1.261-.27-.432-1.55-2.382-2.157-3.303H9.875Zm.928 1.634c.06-.103.243-.406.304-.506.077-.125.433-.5.885-.5h8.017c.395 0 .69.23.872.5.101.149.184.307.238.41.024.045.042.08.053.096h-10.37ZM9.5 25.997c.058-.076.195-.265.28-.404.105-.173.617-.596 1.07-.596h10.548c.212 0 .525.118.665.328l.445.673H9.5Z"/><path fill="#F92F60" d="M8 16v3.24C8 21.32 9.71 23 11.81 23h8.37c2.11 0 3.81-1.68 3.81-3.76V16H8Z"/><path fill="#FCD53F" d="M11 20h2c.56 0 1-.44 1-1 0-.55-.45-1-1-1h-2c-.55 0-1 .45-1 1s.45 1 1 1Zm8 0h2c.56 0 1-.44 1-1 0-.55-.45-1-1-1h-2c-.55 0-1 .45-1 1s.45 1 1 1Z"/><path fill="#636363" d="M12.5 7h7c.28 0 .5-.22.5-.5s-.22-.5-.5-.5h-7c-.28 0-.5.22-.5.5s.22.5.5.5Zm-.54 10h8.09c1.08 0 1.95-.87 1.96-1.96V9.95c0-1.08-.88-1.96-1.96-1.96h-8.09c-1.08 0-1.96.88-1.96 1.96v5.09c0 1.08.88 1.96 1.96 1.96Z"/><path fill="#00D1ED" d="M19.54 16h-7.07c-.81 0-1.47-.66-1.47-1.47v-4.07c0-.81.66-1.47 1.47-1.47h7.07c.81 0 1.47.66 1.47 1.47v4.07c-.01.82-.66 1.47-1.47 1.47Z"/></svg>
